X:1
T:The Jody Grind
C:1966 - Horace Silver
Z:www.realbook.site
L:1/8
M:4/4
I:linebreak $
K:F
V:1 treble nm=" " snm=" "
V:1
{/^D} E- |:"Gm7" EGGE G2 B2 | z4 z2 z G | BGAE G2 z2 | z4 z2 z G |$"C7" cBcd BG z2 | z4 z2 z G | %7
"Gm7" (3BGD CB,- B,2 z2 | z8 |$"F#7b5" z ^d ^G^A EG^D^C |"G#7b5" ^F=f=cB- B2 z2 |"Gm7" z2 g4 z G | %12
 ^c/=c/B GF G z z{/^D} E- :| %13

